X:1
T:XXIV. Faine would I wed a faire yong man
T:XXIV. Faine would I wed a faire yong man
T:Cantus
T:Thomas Campion (1567-1620)
C:Thomas Campion (1567-1620)
L:1/8
M:2/2
K:Gmin
V:1 treble 
V:1
|: GA B2 B2 B2 | AB c2 c2 c2 | Bcde d2 cB | A4 A4 :: de f2 Bc d2 | cBAG ^FE D2 | DEFG ABcB | %7
w: Faine * would I wed|a * faire yong man,|that * day and night could *|please mee:|Maids * are full of *|lon- * ging * thoughts * that|breed * a * bloud- * lesse *|
w: When * my mind or|bo- * dy grie- ved,|that * had the powre to *|ease mee.|And * that oft * I|heare * men * say, * is|one- * ly * cur'd * by *|
 A3 G G4 :: d3 d B2 G2 | c3 c A2 F2 | Bc d2 GABc | A4 A4 :: d2 B2 d3 d | c3 B A2 D2 | F3 G A2 B2 | %15
w: sicke- * nesse:|Oft I have beene|woo'd and prai'd, but|ne- * ver could * be *|mo- ved:|But this fool- ish|mind of mine straight|loaths the thing re|
w: quick- * nesse.|Ma- ny for a|day or so I|have * most dear- * ly *|lov- ed;|If to love be|sinne in mee, that|sinne is soone ab-|
 A4 G4 :: GABc d2 d2 | FGAB"^(1)" c3 c | dc"^(2)"BA GBAG | ^F4 D4 :| x8 |: fedc dc B2 | %22
w: solv- ed.|Sure * I * thinke I|shall * at * last flye|to * some * ho- * ly *|Or- der;||Yet * I * would * not|
w: solv- ed.|when * I * once am|set- * led * there then|can * I * flye * no *|far- ther:||As * I * was * by|
 edcB AG A2 | Bcde cdBc | A4 !fermata!G4 :| %25
w: dye * a * maid * be|cause * I * had * a *|mo- ther.|
w: one * brought * forth * I|would * bring * forth * an- *|o- ther.|

